assets/duotone/chat-duotone.svg

<svg id="Flat" xmlns="http://www.w3.org/2000/svg" viewBox="0 0 256.00098 256.00098">
  <g opacity="0.2">
    <path d="M77.98509,201.34409,45.14832,228.94793a8,8,0,0,1-13.14783-6.12372V64.00049a8,8,0,0,1,8-8h176a8,8,0,0,1,8,8v128a8,8,0,0,1-8,8H81.67142Z"/>
  </g>
  <path d="M40.04248,238.84949a16.07206,16.07206,0,0,1-6.79687-1.52124,15.84959,15.84959,0,0,1-9.24512-14.504V64.00049a16.01825,16.01825,0,0,1,16-16h176a16.01826,16.01826,0,0,1,16,16v128a16.01818,16.01818,0,0,1-16,16H82.49951l-5.14844-6.12366,5.14747,6.12378L50.29541,235.07166A15.88781,15.88781,0,0,1,40.04248,238.84949Zm-.042-174.849V222.81873l32.20312-27.06556.001-.00134a16.02751,16.02751,0,0,1,10.29492-3.75134h133.501v-128Z"/>
</svg>

<svg xmlns="http://www.w3.org/2000/svg" viewBox="0 0 256 256"><g opacity="0.2"><path d="M78,201.3,45.1,228.9A8,8,0,0,1,32,222.8V64a8,8,0,0,1,8-8H216a8,8,0,0,1,8,8V192a8,8,0,0,1-8,8H81.7Z"/></g><path d="M40,238.8a16.4,16.4,0,0,1-6.8-1.5A15.7,15.7,0,0,1,24,222.8V64A16,16,0,0,1,40,48H216a16,16,0,0,1,16,16V192a16,16,0,0,1-16,16H82.5l-5.2-6.1,5.2,6.1L50.3,235.1A15.9,15.9,0,0,1,40,238.8ZM40,64V222.8l32.2-27h0A15.6,15.6,0,0,1,82.5,192H216V64Z"/></svg>
